assets/icons/24px/stroke/cursor-default-24px.svg

<svg width="24" height="24" viewBox="0 0 24 24" fill="none" xmlns="http://www.w3.org/2000/svg">
<path fill-rule="evenodd" clip-rule="evenodd" d="M5.30379 6.60001C5.60346 7.63975 6.23427 9.0649 7.13765 11.0975L10.3644 18.3577L10.409 18.2385C10.4173 18.2162 10.4256 18.194 10.4339 18.1718C10.6704 17.5388 10.8859 16.9618 11.1204 16.5378C11.3695 16.0872 11.7706 15.5653 12.4866 15.4294C13.2026 15.2935 13.767 15.6322 14.1639 15.9601C14.5375 16.2687 14.9494 16.7266 15.4014 17.2289C15.4172 17.2465 15.4331 17.2642 15.449 17.2818L16.3331 18.2641C16.6834 18.6533 16.8789 18.8673 17.0335 18.9979C17.0355 18.9996 17.0374 19.0013 17.0394 19.0029C17.0414 19.0014 17.0434 18.9998 17.0455 18.9983C17.2067 18.8759 17.4132 18.6725 17.7835 18.3023L18.3023 17.7835C18.6725 17.4132 18.8759 17.2068 18.9983 17.0455C18.9998 17.0434 19.0014 17.0414 19.0029 17.0394C19.0013 17.0374 18.9996 17.0355 18.9979 17.0335C18.8673 16.8789 18.6533 16.6834 18.2641 16.3331L17.2818 15.449C17.2641 15.4331 17.2465 15.4172 17.2289 15.4014C16.7266 14.9494 16.2687 14.5375 15.9601 14.1639C15.6322 13.767 15.2935 13.2026 15.4294 12.4866C15.5653 11.7706 16.0872 11.3695 16.5378 11.1204C16.9618 10.8859 17.5388 10.6704 18.1718 10.4339L18.3577 10.3644L11.0975 7.13765C9.0649 6.23427 7.63974 5.60347 6.6 5.30379C5.50673 4.98868 5.28954 5.17532 5.23243 5.23244C5.17532 5.28955 4.98868 5.50673 5.30379 6.60001ZM3.38202 7.15391C3.05001 6.00202 2.90405 4.73239 3.81822 3.81822C4.73238 2.90405 6.00201 3.05002 7.1539 3.38202C8.34311 3.72478 9.89527 4.41466 11.8304 5.27474L19.17 8.53679C19.1894 8.54544 19.2089 8.55408 19.2283 8.56271C19.6523 8.75105 20.064 8.93389 20.3609 9.11933C20.6357 9.29091 21.2009 9.69884 21.1782 10.4498C21.1554 11.2008 20.5666 11.5738 20.2819 11.7285C19.9743 11.8956 19.5523 12.0532 19.1177 12.2155C19.0978 12.2229 19.0778 12.2304 19.0579 12.2378L18.9386 12.2824C18.2166 12.5522 17.7835 12.717 17.5056 12.8706C17.501 12.8732 17.4965 12.8757 17.4922 12.8781C17.4953 12.882 17.4986 12.886 17.5019 12.89C17.7042 13.1348 18.0468 13.4468 18.6198 13.9624L19.6439 14.8842C19.9752 15.1822 20.2953 15.4701 20.5254 15.7424C20.7838 16.0482 21.0328 16.4513 21.0469 16.9856C21.0609 17.52 20.8335 17.9356 20.5914 18.2546C20.376 18.5385 20.0715 18.8429 19.7563 19.1579C19.7431 19.1711 19.7298 19.1844 19.7165 19.1977L19.1977 19.7165C19.1844 19.7298 19.1711 19.7431 19.1579 19.7564C18.8428 20.0715 18.5385 20.376 18.2546 20.5914C17.9356 20.8335 17.52 21.061 16.9856 21.0469C16.4513 21.0328 16.0481 20.7839 15.7423 20.5254C15.4701 20.2953 15.1822 19.9752 14.8842 19.644C14.8717 19.63 14.8591 19.6161 14.8465 19.6021L13.9624 18.6198C13.4468 18.0469 13.1348 17.7042 12.89 17.5019C12.886 17.4986 12.882 17.4953 12.8781 17.4922C12.8757 17.4965 12.8732 17.501 12.8706 17.5056C12.717 17.7835 12.5522 18.2166 12.2824 18.9386L12.2378 19.0579C12.2304 19.0778 12.2229 19.0978 12.2155 19.1177C12.0532 19.5523 11.8956 19.9743 11.7284 20.2819C11.5738 20.5666 11.2008 21.1554 10.4498 21.1782C9.69883 21.2009 9.2909 20.6357 9.11933 20.361C8.93388 20.064 8.75104 19.6523 8.5627 19.2283C8.55407 19.2089 8.54543 19.1895 8.53678 19.17L5.27474 11.8304C4.41466 9.89528 3.72477 8.34311 3.38202 7.15391Z" fill="white"/>
</svg>

<svg width="24" height="24" fill="none" xmlns="http://www.w3.org/2000/svg"><path fill-rule="evenodd" clip-rule="evenodd" d="M5.304 6.6c.3 1.04.93 2.465 1.834 4.498l3.226 7.26.045-.12.025-.066c.236-.633.452-1.21.686-1.634.25-.45.65-.973 1.367-1.109.716-.136 1.28.203 1.677.531.373.309.785.767 1.237 1.269l.048.053.884.982c.35.39.546.603.7.734l.006.005.006-.005c.162-.122.368-.326.738-.696l.52-.518c.37-.37.573-.577.695-.738l.005-.007-.005-.006c-.13-.154-.345-.35-.734-.7l-.982-.884-.053-.048c-.502-.452-.96-.864-1.269-1.237-.328-.397-.667-.961-.53-1.677.135-.716.657-1.117 1.108-1.367.424-.234 1-.45 1.634-.686l.186-.07-7.26-3.226C9.065 6.234 7.64 5.603 6.6 5.304c-1.093-.315-1.31-.129-1.368-.072-.057.058-.243.275.072 1.368zm-1.922.554c-.332-1.152-.478-2.422.436-3.336.914-.914 2.184-.768 3.336-.436 1.19.343 2.741 1.033 4.676 1.893l7.34 3.262.058.026c.424.188.836.37 1.133.556.275.172.84.58.817 1.33-.023.752-.611 1.125-.896 1.28-.308.167-.73.324-1.164.487l-.06.022-.12.044c-.721.27-1.154.435-1.432.589l-.014.007.01.012c.202.245.545.557 1.118 1.072l1.024.922c.331.298.651.586.881.858.259.306.508.71.522 1.244.014.534-.213.95-.456 1.269-.215.284-.52.588-.835.903l-.04.04-.518.518-.04.04c-.315.316-.62.62-.903.835-.32.242-.735.47-1.27.456-.534-.014-.937-.263-1.243-.522-.272-.23-.56-.55-.858-.881l-.037-.042-.885-.982c-.515-.573-.827-.916-1.072-1.118l-.012-.01-.007.014c-.154.277-.319.71-.589 1.433l-.044.119-.022.06c-.163.434-.32.856-.488 1.164-.154.285-.527.873-1.278.896-.751.023-1.16-.542-1.33-.817-.186-.297-.369-.709-.557-1.133l-.026-.058-3.262-7.34c-.86-1.935-1.55-3.487-1.893-4.676z" fill="#fff"/></svg>
